packages/core/src/svgs/tokens/mono/IOST.svg

<svg width="24" height="24" viewBox="0 0 24 24" fill="none" xmlns="http://www.w3.org/2000/svg">
<path d="M11.9997 2L3.11084 6.99778V17.0023L11.9997 22L20.8887 17.0023V6.99778L11.9997 2ZM12.1853 18.2056L5.3575 14.4111L5.38973 12.5655L12.1776 16.3523L15.4497 14.5073L13.2609 13.2794L12.4358 13.7366L10.9008 12.8783L11.717 12.4134L10.642 11.8033L9.9959 12.1728L8.44417 11.3061L9.09862 10.9373L5.62417 8.97946L12.1776 5.28946L18.3675 8.73113L16.7026 9.67001L12.1776 7.14223L8.90473 8.97946L10.7392 10.0144L11.6686 9.47725L13.2198 10.3433L12.2741 10.8728L13.3492 11.4828L14.117 11.0494L15.6603 11.9078L14.8848 12.3489L18.7309 14.5156L12.1853 18.2056Z" fill="white"/>
</svg>

<svg xmlns="http://www.w3.org/2000/svg" width="24" height="24" fill="none" viewBox="0 0 24 24">
    <path fill="#fff" d="M12 2 3.11 6.998v10.004L12 22l8.889-4.998V6.998zm.185 16.206L5.357 14.41l.033-1.845 6.788 3.786 3.272-1.845-2.19-1.228-.824.458-1.535-.859.816-.465-1.075-.61-.646.37-1.552-.867.655-.369L5.624 8.98l6.554-3.69 6.19 3.442-1.665.939-4.525-2.528L8.905 8.98l1.834 1.035.93-.537 1.55.866-.945.53 1.075.61.768-.434 1.543.859-.775.44 3.846 2.168z"/>
</svg>
